X: 44
T: Old Joe Clark
C:Traditional American
B: canberra pickers and fiddlers
B: good tune book
B: tunes
M:2/2
L:1/8
R: reel
Q: 1/2=120
K:Amixolydian
V:1 
|: "A"e2f2 "G"g2f2 | "A"e2d2 c4 | "A"e2f2 "G"g2f2 | "A"e4 z4 |\
"A"e2f2 "G"g2f2 | "A"e2d2 c4 | "A"A2c2 "Em"B2G2 | "A"A4 z4 :|
|: "A"A4 A4 | "/"e2d2 c4 | "A"A4 A2A2 | "G"G4 z4 |\
"A"A4 A4 | "/"e2d2 c4 | "A"A2c2 "G"B2G2 | "A"A4 z4 :|
W: Old Joe Clark's a fine old man
W: Tell you the reason why
W: He keeps good likker 'round his house
W: Good old Rock and Rye
W: 
W: Fare ye well, Old Joe Clark
W: Fare ye well, I say
W: Fare ye well, Old Joe Clark
W: I'm a going away
W: 
W: Old Joe Clark, the preacher's son
W: Preached all over the pain
W: The only text he ever knew
W: Was High, low, Jack and the game
W: 
W: Old Joe Clark had a mule
W: His name was Morgan Brown
W: And every tooth in that mule's head
W: Was sixteen inches around
W: 
W: Old Joe Clark had ayellow cat
W: She would neither sing or pray
W: She stuck her head in the butermilk jar
W: And washed her sins away
W: 
W: Old Joe Clark had a house
W: Fifteen stories high
W: And every story in that house
W: Was filled with chicken pie
W: 
W: I went down to Old Joe's house
W: He invited me to supper
W: I stumped my toe on the table leg
W: And stuck my nose in the butter
W: 
W: Now I wouldn't marry a widder
W: Tell you the reason why
W: She'd have so many children
W: They'd make those biscuits fly
W: 
W: Sixteen horses in my team
W: The leaders they are blind
W: And every time the sun goes down
W: There's a pretty girl on my mind
W: 
W: Eighteen miles of mountain road
W: And fifteen miles of sand
W: If ever travel this road again
W: I'll be a married man
% abcbook-tune_id 63da5934ad5c8e868483cc06
% abcbook-tune_composer_id 
% abcbook-link-0 https://www.youtube.com/watch?v=v4dN3iOZVDQ
% abcbook-link-start-at-0 10
% abcbook-boost 20
% abcbook-difficulty 0
% abcbook-tags canberra pickers and fiddlers,good tune book,old time tunes,© free
% abcbook-tablature 
% abcbook-transpose 
% abcbook-tuning AEAE
% abcbook-lastupdated 1730753222907
% abcbook-src-url https://tunebook.net/scrape/tunes.abc
% abcbook-soundfonts 
% abcbook-repeats 1
%%gchordfont "itim-music,Itim" 20

